Simply-Purple-Circles/scalable/actions/configure-toolbars.svg

<svg xmlns="http://www.w3.org/2000/svg" width="24" height="24"><defs><style id="current-color-scheme"></style></defs><path d="M15.02 4c-.35.13-.7.3-.98.54a2.56 2.56 0 0 0-.04 4.1c.28.23.63.41.97.56.03 0 .03 2.05.03 2.05A7.42 7.42 0 0 1 18 14V9.25c.34-.13.66-.32.95-.55a2.56 2.56 0 0 0 .04-4.1 3.64 3.64 0 0 0-.97-.56L18 6.27c0 .46-.45.73-1 .73h-1c-.56 0-1-.3-1-.77L15.02 4zM12 12c-4 0-6 3-6 6H4.25c-.25 0-.25.16-.25.25v1.5c0 .25.14.25.25.25h15.5c.19 0 .24-.13.24-.25v-1.5c.03-.15 0-.25-.25-.25H18c0-3-2-6-6-6zm0 3c2.35 0 3 1.76 3 3H9c0-1.2.7-3 3-3z" fill="currentColor" color="#963996"/></svg>

<?xml version="1.0" encoding="UTF-8" standalone="no"?>
<svg
   xmlns:dc="http://purl.org/dc/elements/1.1/"
   xmlns:cc="http://creativecommons.org/ns#"
   xmlns:rdf="http://www.w3.org/1999/02/22-rdf-syntax-ns#"
   xmlns:svg="http://www.w3.org/2000/svg"
   xmlns="http://www.w3.org/2000/svg"
   xmlns:sodipodi="http://sodipodi.sourceforge.net/DTD/sodipodi-0.dtd"
   xmlns:inkscape="http://www.inkscape.org/namespaces/inkscape"
   width="24"
   height="24"
   version="1.1"
   id="svg7"
   sodipodi:docname="configure-toolbars.svg"
   inkscape:version="0.92.4 (5da689c313, 2019-01-14)">
  <metadata
     id="metadata11">
    <rdf:RDF>
      <cc:Work
         rdf:about="">
        <dc:format>image/svg+xml</dc:format>
        <dc:type
           rdf:resource="http://purl.org/dc/dcmitype/StillImage" />
        <dc:title></dc:title>
      </cc:Work>
    </rdf:RDF>
  </metadata>
  <sodipodi:namedview
     pagecolor="#ffffff"
     bordercolor="#666666"
     borderopacity="1"
     objecttolerance="10"
     gridtolerance="10"
     guidetolerance="10"
     inkscape:pageopacity="0"
     inkscape:pageshadow="2"
     inkscape:window-width="1078"
     inkscape:window-height="480"
     id="namedview9"
     showgrid="false"
     inkscape:zoom="9.8333333"
     inkscape:cx="-0.81355932"
     inkscape:cy="12"
     inkscape:window-x="0"
     inkscape:window-y="28"
     inkscape:window-maximized="0"
     inkscape:current-layer="svg7" />
  <defs
     id="defs3">
    <style
       id="current-color-scheme" />
  </defs>
  <path
     d="m 15.02,4 c -0.35,0.13 -0.7,0.3 -0.98,0.54 A 2.56,2.56 0 0 0 14,8.64 C 14.28,8.87 14.63,9.05 14.97,9.2 15,9.2 15,11.25 15,11.25 A 7.42,7.42 0 0 1 18,14 V 9.25 C 18.34,9.12 18.66,8.93 18.95,8.7 A 2.56,2.56 0 0 0 18.99,4.6 3.64,3.64 0 0 0 18.02,4.04 L 18,6.27 C 18,6.73 17.55,7 17,7 H 16 C 15.44,7 15,6.7 15,6.23 Z M 12,12 C 8,12 6,15 6,18 H 4.25 C 4,18 4,18.16 4,18.25 v 1.5 C 4,20 4.14,20 4.25,20 h 15.5 c 0.19,0 0.24,-0.13 0.24,-0.25 v -1.5 C 20.02,18.1 19.99,18 19.74,18 H 18 c 0,-3 -2,-6 -6,-6 z m 0,3 c 2.35,0 3,1.76 3,3 H 9 c 0,-1.2 0.7,-3 3,-3 z"
     id="path5"
     inkscape:connector-curvature="0"
     style="color:#963996;fill:currentColor" />
</svg>
